krita/pics/svg/light_trim-to-image.svg

<!--Created with Inkscape (http://www.inkscape.org/)--><svg xmlns:dc="http://purl.org/dc/elements/1.1/" xmlns:cc="http://creativecommons.org/ns#" xmlns:rdf="http://www.w3.org/1999/02/22-rdf-syntax-ns#" xmlns="http://www.w3.org/2000/svg" xmlns:xlink="http://www.w3.org/1999/xlink" xmlns:sodipodi="http://sodipodi.sourceforge.net/DTD/sodipodi-0.dtd" xmlns:inkscape="http://www.inkscape.org/namespaces/inkscape" version="1.1" width="22" height="22" id="svg5119" inkscape:version="0.92.1 r15371" sodipodi:docname="light_trim-to-image.svg" inkscape:export-filename="../light_trim-to-image.png" inkscape:export-xdpi="90" inkscape:export-ydpi="90"><sodipodi:namedview pagecolor="#4d4d4d" bordercolor="#666666" borderopacity="1" objecttolerance="10" gridtolerance="10000" guidetolerance="10000" inkscape:pageopacity="0" inkscape:pageshadow="2" inkscape:window-width="1884" inkscape:window-height="1051" id="namedview24" showgrid="true" inkscape:zoom="3.1491664" inkscape:cx="-101.31621" inkscape:cy="11.107354" inkscape:current-layer="svg5119" inkscape:snap-center="false" inkscape:snap-grids="true" inkscape:snap-object-midpoints="true" inkscape:snap-perpendicular="false" inkscape:snap-to-guides="false" inkscape:snap-page="false" inkscape:snap-bbox="false" inkscape:snap-global="true" inkscape:snap-nodes="true" inkscape:window-x="0" inkscape:window-y="0" inkscape:window-maximized="1"><inkscape:grid empspacing="1" type="xygrid" id="grid4156"/></sodipodi:namedview><metadata id="metadata5125"><rdf:RDF><cc:Work><dc:format>image/svg+xml</dc:format><dc:type rdf:resource="http://purl.org/dc/dcmitype/StillImage"/><dc:title/><dc:date>2015</dc:date><dc:creator><cc:Agent><dc:title>Timothée Giet</dc:title></cc:Agent></dc:creator><cc:license rdf:resource="http://creativecommons.org/licenses/by-sa/4.0/"/></cc:Work><cc:License rdf:about="http://creativecommons.org/licenses/by-sa/4.0/"><cc:permits rdf:resource="http://creativecommons.org/ns#Reproduction"/><cc:permits rdf:resource="http://creativecommons.org/ns#Distribution"/><cc:requires rdf:resource="http://creativecommons.org/ns#Notice"/><cc:requires rdf:resource="http://creativecommons.org/ns#Attribution"/><cc:permits rdf:resource="http://creativecommons.org/ns#DerivativeWorks"/><cc:requires rdf:resource="http://creativecommons.org/ns#ShareAlike"/></cc:License></rdf:RDF></metadata><defs id="defs5123"><linearGradient x1="178.39517" y1="87.793045" x2="185.75043" y2="95.148293" id="linearGradient10539" xlink:href="#linearGradient6935" gradientUnits="userSpaceOnUse" gradientTransform="matrix(1.25916 0 0 1.25916 -7.435 33.683)"/><linearGradient id="linearGradient6935"><stop id="stop6937" style="stop-color:#666;stop-opacity:1" offset="0"/><stop id="stop6939" style="stop-color:#1a1a1a;stop-opacity:1" offset="1"/></linearGradient><linearGradient x1="178.39517" y1="87.793045" x2="185.75043" y2="95.148293" id="linearGradient5162" xlink:href="#linearGradient6935" gradientUnits="userSpaceOnUse" gradientTransform="matrix(1.25916 0 0 1.25916 -7.435 33.683)"/><linearGradient x1="178.39517" y1="87.793045" x2="185.75043" y2="95.148293" id="linearGradient9563" xlink:href="#linearGradient5536" gradientUnits="userSpaceOnUse" gradientTransform="translate(-700.863 1039.19) scale(1.28659)"/><linearGradient id="linearGradient5536"><stop id="stop5538" style="stop-color:#e6e6e6;stop-opacity:1" offset="0"/><stop id="stop5540" style="stop-color:#aaa;stop-opacity:1" offset="1"/></linearGradient></defs><path style="fill:#d2d2d2;fill-opacity:.94117647;fill-rule:evenodd;stroke:none;stroke-width:1px;stroke-linecap:butt;stroke-linejoin:miter;stroke-opacity:1" d="M22 15V7l-3 4z" id="path4200-58-8-4" inkscape:connector-curvature="0" sodipodi:nodetypes="cccc"/><path style="display:inline;opacity:1;fill:#d2d2d2;fill-opacity:.94117647;stroke:none;stroke-width:4;stroke-linecap:butt;stroke-linejoin:round;stroke-miterlimit:4;stroke-dasharray:none;stroke-dashoffset:1;stroke-opacity:1" d="M5 3v2H3v2h2v8l2 2h8v2h2v-2h2v-2H7V3H5z" id="path4158"/><path sodipodi:nodetypes="cccccccc" inkscape:connector-curvature="0" id="path4160" d="M15 14h2V5H8v2h7z" style="display:inline;opacity:1;fill:#d2d2d2;fill-opacity:.94117647;stroke:none;stroke-width:4;stroke-linecap:butt;stroke-linejoin:round;stroke-miterlimit:4;stroke-dasharray:none;stroke-dashoffset:1;stroke-opacity:1"/><path style="fill:#d2d2d2;fill-opacity:.94117647;fill-rule:evenodd;stroke:none;stroke-width:1px;stroke-linecap:butt;stroke-linejoin:miter;stroke-opacity:1" d="M0 7v8l3-4z" id="path4200-58-8-4-6" inkscape:connector-curvature="0" sodipodi:nodetypes="cccc"/><path style="fill:#d2d2d2;fill-opacity:.94117647;fill-rule:evenodd;stroke:none;stroke-width:1px;stroke-linecap:butt;stroke-linejoin:miter;stroke-opacity:1" d="M7 22h8l-4-3z" id="path4200-58-8-4-7" inkscape:connector-curvature="0" sodipodi:nodetypes="cccc"/><path style="fill:#d2d2d2;fill-opacity:.94117647;fill-rule:evenodd;stroke:none;stroke-width:1px;stroke-linecap:butt;stroke-linejoin:miter;stroke-opacity:1" d="M15 0H7l4 3z" id="path4200-58-8-4-6-5" inkscape:connector-curvature="0" sodipodi:nodetypes="cccc"/><path style="fill:#d2d2d2;fill-opacity:.94117647;fill-rule:evenodd;stroke:none;stroke-width:1px;stroke-linecap:butt;stroke-linejoin:miter;stroke-opacity:1" d="m17 3 2 2L8 16l-2-2z" id="path4236" inkscape:connector-curvature="0" sodipodi:nodetypes="ccccc"/></svg>

<?xml version="1.0" encoding="UTF-8" standalone="no"?>
<!-- Created with Inkscape (http://www.inkscape.org/) -->

<svg
   xmlns:dc="http://purl.org/dc/elements/1.1/"
   xmlns:cc="http://creativecommons.org/ns#"
   xmlns:rdf="http://www.w3.org/1999/02/22-rdf-syntax-ns#"
   xmlns:svg="http://www.w3.org/2000/svg"
   xmlns="http://www.w3.org/2000/svg"
   xmlns:xlink="http://www.w3.org/1999/xlink"
   xmlns:sodipodi="http://sodipodi.sourceforge.net/DTD/sodipodi-0.dtd"
   xmlns:inkscape="http://www.inkscape.org/namespaces/inkscape"
   version="1.1"
   width="22"
   height="22"
   id="svg5119"
   inkscape:version="0.92.1 r15371"
   sodipodi:docname="light_trim-to-image.svg"
   inkscape:export-filename="../light_trim-to-image.png"
   inkscape:export-xdpi="90"
   inkscape:export-ydpi="90">
  <sodipodi:namedview
     pagecolor="#4d4d4d"
     bordercolor="#666666"
     borderopacity="1"
     objecttolerance="10"
     gridtolerance="10000"
     guidetolerance="10000"
     inkscape:pageopacity="0"
     inkscape:pageshadow="2"
     inkscape:window-width="1884"
     inkscape:window-height="1051"
     id="namedview24"
     showgrid="true"
     inkscape:zoom="3.1491664"
     inkscape:cx="-101.31621"
     inkscape:cy="11.107354"
     inkscape:current-layer="svg5119"
     inkscape:snap-center="false"
     inkscape:snap-grids="true"
     inkscape:snap-object-midpoints="true"
     inkscape:snap-perpendicular="false"
     inkscape:snap-to-guides="false"
     inkscape:snap-page="false"
     inkscape:snap-bbox="false"
     inkscape:snap-global="true"
     inkscape:snap-nodes="true"
     inkscape:window-x="0"
     inkscape:window-y="0"
     inkscape:window-maximized="1">
    <inkscape:grid
       empspacing="1"
       type="xygrid"
       id="grid4156" />
  </sodipodi:namedview>
  <metadata
     id="metadata5125">
    <rdf:RDF>
      <cc:Work
         rdf:about="">
        <dc:format>image/svg+xml</dc:format>
        <dc:type
           rdf:resource="http://purl.org/dc/dcmitype/StillImage" />
        <dc:title></dc:title>
        <dc:date>2015</dc:date>
        <dc:creator>
          <cc:Agent>
            <dc:title>Timothée Giet</dc:title>
          </cc:Agent>
        </dc:creator>
        <cc:license
           rdf:resource="http://creativecommons.org/licenses/by-sa/4.0/" />
      </cc:Work>
      <cc:License
         rdf:about="http://creativecommons.org/licenses/by-sa/4.0/">
        <cc:permits
           rdf:resource="http://creativecommons.org/ns#Reproduction" />
        <cc:permits
           rdf:resource="http://creativecommons.org/ns#Distribution" />
        <cc:requires
           rdf:resource="http://creativecommons.org/ns#Notice" />
        <cc:requires
           rdf:resource="http://creativecommons.org/ns#Attribution" />
        <cc:permits
           rdf:resource="http://creativecommons.org/ns#DerivativeWorks" />
        <cc:requires
           rdf:resource="http://creativecommons.org/ns#ShareAlike" />
      </cc:License>
    </rdf:RDF>
  </metadata>
  <defs
     id="defs5123">
    <linearGradient
       x1="178.39517"
       y1="87.793045"
       x2="185.75043"
       y2="95.148293"
       id="linearGradient10539"
       xlink:href="#linearGradient6935"
       gradientUnits="userSpaceOnUse"
       gradientTransform="matrix(1.259156,0,0,1.259156,-7.4350029,33.683404)" />
    <linearGradient
       id="linearGradient6935">
      <stop
         id="stop6937"
         style="stop-color:#666666;stop-opacity:1"
         offset="0" />
      <stop
         id="stop6939"
         style="stop-color:#1a1a1a;stop-opacity:1"
         offset="1" />
    </linearGradient>
    <linearGradient
       x1="178.39517"
       y1="87.793045"
       x2="185.75043"
       y2="95.148293"
       id="linearGradient5162"
       xlink:href="#linearGradient6935"
       gradientUnits="userSpaceOnUse"
       gradientTransform="matrix(1.259156,0,0,1.259156,-7.4350029,33.683404)" />
    <linearGradient
       x1="178.39517"
       y1="87.793045"
       x2="185.75043"
       y2="95.148293"
       id="linearGradient9563"
       xlink:href="#linearGradient5536"
       gradientUnits="userSpaceOnUse"
       gradientTransform="matrix(1.2865905,0,0,1.2865905,-700.8632,1039.1906)" />
    <linearGradient
       id="linearGradient5536">
      <stop
         id="stop5538"
         style="stop-color:#e6e6e6;stop-opacity:1"
         offset="0" />
      <stop
         id="stop5540"
         style="stop-color:#aaaaaa;stop-opacity:1"
         offset="1" />
    </linearGradient>
  </defs>
  <path
     style="fill:#d2d2d2;fill-opacity:0.94117647;fill-rule:evenodd;stroke:none;stroke-width:1px;stroke-linecap:butt;stroke-linejoin:miter;stroke-opacity:1"
     d="m 22,15 0,-8 -3,4 z"
     id="path4200-58-8-4"
     inkscape:connector-curvature="0"
     sodipodi:nodetypes="cccc" />
  <path
     style="display:inline;opacity:1;fill:#d2d2d2;fill-opacity:0.94117647;stroke:none;stroke-width:4;stroke-linecap:butt;stroke-linejoin:round;stroke-miterlimit:4;stroke-dasharray:none;stroke-dashoffset:1;stroke-opacity:1"
     d="M 5 3 L 5 5 L 3 5 L 3 7 L 5 7 L 5 15 L 7 17 L 15 17 L 15 19 L 17 19 L 17 17 L 19 17 L 19 15 L 7 15 L 7 3 L 5 3 z "
     id="path4158" />
  <path
     sodipodi:nodetypes="cccccccc"
     inkscape:connector-curvature="0"
     id="path4160"
     d="m 15,14 2,0 0,-7 0,-2 -9,0 0,2 7,0 z"
     style="display:inline;opacity:1;fill:#d2d2d2;fill-opacity:0.94117647;stroke:none;stroke-width:4;stroke-linecap:butt;stroke-linejoin:round;stroke-miterlimit:4;stroke-dasharray:none;stroke-dashoffset:1;stroke-opacity:1" />
  <path
     style="fill:#d2d2d2;fill-opacity:0.94117647;fill-rule:evenodd;stroke:none;stroke-width:1px;stroke-linecap:butt;stroke-linejoin:miter;stroke-opacity:1"
     d="m 0,7 0,8 3,-4 z"
     id="path4200-58-8-4-6"
     inkscape:connector-curvature="0"
     sodipodi:nodetypes="cccc" />
  <path
     style="fill:#d2d2d2;fill-opacity:0.94117647;fill-rule:evenodd;stroke:none;stroke-width:1px;stroke-linecap:butt;stroke-linejoin:miter;stroke-opacity:1"
     d="m 7,22 8,0 -4,-3 z"
     id="path4200-58-8-4-7"
     inkscape:connector-curvature="0"
     sodipodi:nodetypes="cccc" />
  <path
     style="fill:#d2d2d2;fill-opacity:0.94117647;fill-rule:evenodd;stroke:none;stroke-width:1px;stroke-linecap:butt;stroke-linejoin:miter;stroke-opacity:1"
     d="M 15,0 7,0 11,3 Z"
     id="path4200-58-8-4-6-5"
     inkscape:connector-curvature="0"
     sodipodi:nodetypes="cccc" />
  <path
     style="fill:#d2d2d2;fill-opacity:0.94117647;fill-rule:evenodd;stroke:none;stroke-width:1px;stroke-linecap:butt;stroke-linejoin:miter;stroke-opacity:1"
     d="M 17,3 19,5 8,16 6,14 Z"
     id="path4236"
     inkscape:connector-curvature="0"
     sodipodi:nodetypes="ccccc" />
</svg>
